X: 4
T: The Merry Maid's Wedding
R: strathspey
M: 4/4
L: 1/8
K: Emin
|:c|BEEc BA F/G/A|B ~E3 DEFc|B ~E3 B ~A3|BAdF FE- E:|
|:c|BABd ~e3 d|~A3 F ABdF|BABd e2 dc|~A3 F FE- E:|

